!!!OTL: VATER NOAH WEINERFINDER
!!!ARE: Europa, Mitteleuropa, Deutschland
!!!SCT: F0738A
!!!YEM: Copyright 1995, estate of Helmut Schaffrath.
**kern
*ICvox
*Ivox
*M6/8
*k[]
*C:
=1
{4c
8c
8c
8B
8A
=2
8G
8A
8F#
4G
8G}
=3
{8.c
16B
8c
8d
8f
8d
=4
8.B
16A
8B
4.c}
=5
{4d
8d
4d
8B
=6
8A
8B
8c
4B
8G}
=7
{4d
8d
8d
8c
8B
=8
8A
8G
8A
4G
8r}
=9
{4c
8G
4e
8c
=10
8g
8e
8c
4.f}
=11
{4e
8e
8.f
16e
8d
=12
8c
8d
8B
4c
8r}
==
!!!AGN: Geselligkeits -, Trink - Lied
!!!ONB: ESAC (Essen Associative Code) Database: FINK
!!!AMT: compound duple
!!!AIN: vox
!!!EED: Helmut Schaffrath
!!!EEV: 1.0
*-
